icons/zoom.svg

<?xml version="1.0" encoding="UTF-8" standalone="no"?>
<svg width="28px" height="28px" viewBox="0 0 28 28" version="1.1" xmlns="http://www.w3.org/2000/svg" xmlns:xlink="http://www.w3.org/1999/xlink" xmlns:sketch="http://www.bohemiancoding.com/sketch/ns">
    <!-- Generator: Sketch 3.1 (8751) - http://www.bohemiancoding.com/sketch -->
    <title>Zoom</title>
    <desc>Created with Sketch.</desc>
    <defs></defs>
    <g id="Android-App" stroke="none" stroke-width="1" fill="none" fill-rule="evenodd" sketch:type="MSPage">
        <g id="Movie-List" sketch:type="MSArtboardGroup" transform="translate(-321.000000, -39.000000)" fill="#FFFFFF">
            <g id="Header" sketch:type="MSLayerGroup" transform="translate(0.000000, 25.000000)">
                <path d="M344.76159,32.8749232 L340.991352,29.1033292 C340.659705,28.7722918 340.059021,28.8035978 339.457097,29.1172774 L337.81188,27.4729393 C339.954878,24.6727601 339.75279,20.653198 337.191049,18.0910681 C334.401805,15.3029773 329.880558,15.3029773 327.091003,18.0910681 C324.302999,20.8807086 324.302999,25.402406 327.091003,28.1917366 C329.653674,30.7535566 333.673112,30.9556505 336.472894,28.8119667 L338.117801,30.4559949 C337.804131,31.0591772 337.772206,31.6592599 338.103234,31.9909171 L341.874091,35.7625112 C342.350485,36.2382999 343.38479,35.9766936 344.180432,35.1788564 C344.977005,34.3831889 345.238603,33.3507119 344.76159,32.8749232 L344.76159,32.8749232 Z M328.153204,27.1301234 C325.951315,24.9263074 325.951315,21.3549475 328.153204,19.1529912 C330.356642,16.9494852 333.925101,16.951035 336.129779,19.1529912 C338.331667,21.3549475 338.331667,24.9250675 336.129779,27.1301234 C333.925101,29.3320797 330.354782,29.3320797 328.153204,27.1301234 L328.153204,27.1301234 Z" id="Zoom" sketch:type="MSShapeGroup"></path>
            </g>
        </g>
    </g>
</svg>

<?xml version="1.0" encoding="utf-8"?>
<!-- Generator: Adobe Illustrator 17.0.0, SVG Export Plug-In . SVG Version: 6.00 Build 0)  -->
<!DOCTYPE svg PUBLIC "-//W3C//DTD SVG 1.1//EN" "http://www.w3.org/Graphics/SVG/1.1/DTD/svg11.dtd">
<svg version="1.1" id="Layer_1" xmlns:sketch="http://www.bohemiancoding.com/sketch/ns"
	 xmlns="http://www.w3.org/2000/svg" xmlns:xlink="http://www.w3.org/1999/xlink" x="0px" y="0px" width="20px" height="20px"
	 viewBox="4 2 20 20" enable-background="new 4 2 20 20" xml:space="preserve">
<title>Zoom</title>
<desc>Created with Sketch.</desc>
<g id="Android-App" sketch:type="MSPage">
	<g id="Movie-List" transform="translate(-321.000000, -39.000000)" sketch:type="MSArtboardGroup">
		<g id="Header" transform="translate(0.000000, 25.000000)" sketch:type="MSLayerGroup">
			<path id="Zoom" sketch:type="MSShapeGroup" fill="#FFFFFF" d="M344.762,32.875l-3.77-3.772c-0.332-0.331-0.932-0.3-1.534,0.014
				l-1.645-1.644c2.143-2.8,1.941-6.82-0.621-9.382c-2.789-2.788-7.31-2.788-10.1,0c-2.788,2.79-2.788,7.311,0,10.101
				c2.563,2.562,6.582,2.764,9.382,0.62l1.645,1.644c-0.314,0.603-0.346,1.203-0.015,1.535l3.771,3.772
				c0.476,0.476,1.511,0.214,2.306-0.584C344.977,34.383,345.239,33.351,344.762,32.875L344.762,32.875z M328.153,27.13
				c-2.202-2.204-2.202-5.775,0-7.977c2.203-2.204,5.772-2.202,7.977,0c2.202,2.202,2.202,5.772,0,7.977
				C333.925,29.332,330.355,29.332,328.153,27.13L328.153,27.13z"/>
		</g>
	</g>
</g>
</svg>
